dist/images/src/logo-lightspeed.svg

<svg width="171" height="40" viewBox="0 0 171 40" fill="none" xmlns="http://www.w3.org/2000/svg">
<path fill-rule="evenodd" clip-rule="evenodd" d="M13.0949 9.53674e-10L14.8949 3.135C15.2549 3.785 15.2549 4.577 14.8949 5.225L4.16686 23.856L9.24286 32.649C9.63407 33.3252 10.1955 33.8872 10.8713 34.2791C11.547 34.6711 12.3137 34.8792 13.0949 34.883C14.6789 34.883 16.1549 34.018 16.9469 32.649L22.0229 23.856L20.6909 21.478L14.9309 31.46C14.5709 32.108 13.8509 32.505 13.1309 32.505C12.3749 32.505 11.6909 32.108 11.3309 31.46L6.90286 23.856L16.8749 6.559L18.6749 9.694C19.0349 10.343 19.0349 11.135 18.6749 11.784L11.7269 23.856L13.0949 26.235L20.6549 13.117L25.6229 21.73C25.9944 22.3835 26.1897 23.1223 26.1897 23.874C26.1897 24.6257 25.9944 25.3645 25.6229 26.018L20.5829 34.775C19.8269 36.108 17.4149 39.099 13.0949 39.099C8.77486 39.099 6.39886 36.109 5.60686 34.775L0.566859 26.018C0.195336 25.3645 -4.54264e-09 24.6257 -4.54263e-09 23.874C-4.54263e-09 23.1223 0.195336 22.3835 0.566859 21.73L13.0949 9.53674e-10ZM36.5309 9.334H40.0229V29.982H36.5309V9.334ZM44.7029 13.117C45.1089 13.1172 45.5059 12.997 45.8436 12.7716C46.1813 12.5461 46.4446 12.2256 46.6002 11.8506C46.7558 11.4755 46.7966 11.0627 46.7176 10.6645C46.6386 10.2662 46.4432 9.90027 46.1563 9.61302C45.8693 9.32576 45.5036 9.13005 45.1054 9.05064C44.7072 8.97123 44.2943 9.01169 43.9191 9.16689C43.5439 9.3221 43.2232 9.58508 42.9974 9.92258C42.7717 10.2601 42.6511 10.657 42.6509 11.063C42.6509 12.198 43.5699 13.117 44.7029 13.117ZM42.9389 15.64H46.4669V29.982H42.9389V15.64ZM55.7189 15.28C51.7229 15.28 48.4829 18.09 48.4829 22.559C48.4829 27.027 51.2909 29.766 55.7549 29.766C57.5189 29.766 59.3909 30.667 59.3909 32.649C59.3909 34.631 57.8069 35.749 55.7549 35.749C53.7029 35.749 52.0109 34.523 52.0109 32.649H48.4829C48.4829 36.505 51.5789 39.063 55.7549 39.063C59.8949 39.063 62.9189 36.613 62.9189 32.649C62.9189 30.811 62.3429 29.081 59.9669 27.892C62.3069 26.812 62.9909 24.325 62.9909 22.522C62.9909 18.09 59.7149 15.28 55.7189 15.28ZM73.2149 15.28C71.5949 15.28 70.0469 15.784 68.7509 17.406V9.298H65.2229V29.946H68.7509V22.667C68.7509 20.541 70.1909 18.775 72.2789 18.775C74.1509 18.775 75.5189 19.892 75.5189 22.487V29.947H79.0469V22.235C79.0829 18.018 77.2829 15.28 73.2149 15.28ZM87.6509 27.532C87.2189 27.532 86.8589 27.388 86.6429 27.099C86.4269 26.811 86.3189 26.379 86.3189 25.73V18.667H89.1629L89.4869 15.604H86.3549V11.676L82.7909 12.072V15.64H80.0909V18.703H82.7909V25.838C82.7909 27.316 83.1509 28.433 83.8349 29.19C84.5189 29.946 85.5629 30.343 86.8949 30.343C87.5069 30.343 88.0829 30.271 88.6949 30.09C89.2719 29.9265 89.8189 29.6712 90.3149 29.334L89.0909 27.064C88.6699 27.3633 88.1674 27.5267 87.6509 27.532ZM102.159 22.271C100.719 21.37 99.0269 21.261 97.3709 21.153C96.3989 21.081 94.9229 20.865 94.9229 19.603C94.9229 18.703 95.8589 18.199 97.5509 18.199C98.9189 18.199 100.107 18.523 101.115 19.459L103.095 17.153C101.439 15.712 99.7469 15.28 97.4789 15.28C94.8509 15.28 91.3949 16.433 91.3949 19.748C91.3949 21.118 92.1149 22.378 93.3029 23.099C94.6349 23.929 96.3629 24.036 97.8389 24.217C98.8469 24.325 100.503 24.577 100.215 25.982C100.035 26.955 98.8469 27.244 98.0189 27.28C97.1189 27.316 96.2189 27.244 95.3189 27.027C94.3829 26.775 93.6269 26.343 92.7989 25.802L90.9989 28.072C91.1069 28.144 91.2149 28.252 91.2149 28.252C93.5189 30.162 96.7229 30.775 99.6389 30.126C101.835 29.622 103.707 28.036 103.707 25.658C103.779 24.325 103.347 22.991 102.159 22.271ZM113.787 15.28C112.167 15.28 110.259 15.964 109.143 17.55L109.035 15.604H105.615V36.253L109.143 35.856V28.289C110.151 29.839 112.347 30.343 113.859 30.343C118.431 30.343 121.095 26.919 121.095 22.775C121.095 18.559 118.179 15.28 113.787 15.28ZM125.703 24.072C126.099 25.766 127.647 27.244 130.167 27.244C131.463 27.244 133.191 26.594 134.019 25.766L136.287 28C134.775 29.55 132.291 30.307 130.131 30.307C125.667 30.307 122.427 27.352 122.427 22.775C122.427 18.451 125.775 15.28 129.879 15.28C134.199 15.28 137.799 18.235 137.439 24.072H125.703ZM142.047 24.072C142.443 25.766 143.991 27.244 146.511 27.244C147.807 27.244 149.535 26.594 150.363 25.766L152.631 28C151.119 29.55 148.635 30.307 146.475 30.307C142.011 30.307 138.771 27.352 138.771 22.775C138.771 18.451 142.119 15.28 146.223 15.28C150.543 15.28 154.143 18.235 153.783 24.072H142.047ZM162.315 30.342C163.935 30.342 165.843 29.658 166.959 28.072L167.067 29.982H170.487V9.334H166.959V17.334C165.951 15.784 163.719 15.316 162.207 15.316C157.635 15.316 155.007 18.703 155.007 22.883C155.007 27.063 157.923 30.343 162.315 30.343V30.342ZM55.7549 26.847C53.7029 26.847 52.0109 25.081 52.0109 22.559C52.0109 20.072 53.7029 18.235 55.7549 18.235C57.8069 18.235 59.4629 20.108 59.4629 22.559C59.4629 25.045 57.7709 26.847 55.7549 26.847ZM113.499 27.28C111.087 27.28 109.467 25.081 109.467 22.847C109.467 20.613 110.979 18.235 113.499 18.235C116.055 18.235 117.531 20.649 117.531 22.847C117.567 25.081 115.911 27.28 113.499 27.28ZM134.019 21.37C133.623 19.676 131.931 18.199 129.879 18.199C127.971 18.199 126.207 19.496 125.703 21.369H134.019V21.37ZM150.399 21.37C150.003 19.676 148.311 18.199 146.259 18.199C144.351 18.199 142.587 19.496 142.083 21.369H150.399V21.37ZM162.567 18.343C164.979 18.343 166.599 20.541 166.599 22.775C166.599 25.009 165.087 27.388 162.567 27.388C160.011 27.388 158.535 24.973 158.535 22.775C158.535 20.541 160.155 18.343 162.567 18.343Z" fill="#B2B2B2"/>
</svg>

<svg width="171" height="40" fill="none" xmlns="http://www.w3.org/2000/svg"><path fill-rule="evenodd" clip-rule="evenodd" d="M13.095 0l1.8 3.135c.36.65.36 1.442 0 2.09L4.167 23.856l5.076 8.793a4.475 4.475 0 003.852 2.234c1.584 0 3.06-.865 3.852-2.234l5.076-8.793-1.332-2.378-5.76 9.982c-.36.648-1.08 1.045-1.8 1.045-.756 0-1.44-.397-1.8-1.045l-4.428-7.604 9.972-17.297 1.8 3.135c.36.649.36 1.441 0 2.09l-6.948 12.072 1.368 2.379 7.56-13.118 4.968 8.613a4.338 4.338 0 010 4.288l-5.04 8.757c-.756 1.333-3.168 4.324-7.488 4.324s-6.696-2.99-7.488-4.324l-5.04-8.757a4.338 4.338 0 010-4.288L13.095 0zM36.53 9.334h3.492v20.648H36.53V9.334zm8.172 3.783a2.053 2.053 0 10.002-4.106 2.053 2.053 0 00-.002 4.106zm-1.764 2.523h3.528v14.342h-3.528V15.64zm12.78-.36c-3.996 0-7.236 2.81-7.236 7.279 0 4.468 2.808 7.207 7.272 7.207 1.764 0 3.636.901 3.636 2.883s-1.584 3.1-3.636 3.1-3.744-1.226-3.744-3.1h-3.528c0 3.856 3.096 6.414 7.272 6.414 4.14 0 7.164-2.45 7.164-6.414 0-1.838-.576-3.568-2.952-4.757 2.34-1.08 3.024-3.567 3.024-5.37 0-4.432-3.276-7.242-7.272-7.242zm17.496 0c-1.62 0-3.168.504-4.464 2.126V9.298h-3.528v20.648h3.528v-7.279c0-2.126 1.44-3.892 3.528-3.892 1.872 0 3.24 1.117 3.24 3.712v7.46h3.528v-7.712c.036-4.217-1.764-6.955-5.832-6.955zM87.65 27.532c-.432 0-.792-.144-1.008-.433-.216-.288-.324-.72-.324-1.369v-7.063h2.844l.324-3.063h-3.132v-3.928l-3.564.396v3.568h-2.7v3.063h2.7v7.135c0 1.478.36 2.595 1.044 3.352.684.756 1.728 1.153 3.06 1.153.612 0 1.188-.072 1.8-.253a5.594 5.594 0 001.62-.756l-1.224-2.27a2.53 2.53 0 01-1.44.468zm14.508-5.261c-1.44-.901-3.132-1.01-4.788-1.118-.972-.072-2.448-.288-2.448-1.55 0-.9.936-1.404 2.628-1.404 1.368 0 2.556.324 3.564 1.26l1.98-2.306c-1.656-1.441-3.348-1.873-5.616-1.873-2.628 0-6.084 1.153-6.084 4.468 0 1.37.72 2.63 1.908 3.351 1.332.83 3.06.937 4.536 1.118 1.008.108 2.664.36 2.376 1.765-.18.973-1.368 1.262-2.196 1.298-.9.036-1.8-.036-2.7-.253-.936-.252-1.692-.684-2.52-1.225l-1.8 2.27c.108.072.216.18.216.18 2.304 1.91 5.508 2.523 8.424 1.874 2.196-.504 4.068-2.09 4.068-4.468.072-1.333-.36-2.667-1.548-3.387zm11.628-6.991c-1.62 0-3.528.684-4.644 2.27l-.108-1.946h-3.42v20.649l3.528-.397v-7.567c1.008 1.55 3.204 2.054 4.716 2.054 4.572 0 7.236-3.424 7.236-7.568 0-4.216-2.916-7.495-7.308-7.495zm11.916 8.792c.396 1.694 1.944 3.172 4.464 3.172 1.296 0 3.024-.65 3.852-1.478L136.287 28c-1.512 1.55-3.996 2.307-6.156 2.307-4.464 0-7.704-2.955-7.704-7.532 0-4.324 3.348-7.495 7.452-7.495 4.32 0 7.92 2.955 7.56 8.792h-11.736zm16.344 0c.396 1.694 1.944 3.172 4.464 3.172 1.296 0 3.024-.65 3.852-1.478L152.631 28c-1.512 1.55-3.996 2.307-6.156 2.307-4.464 0-7.704-2.955-7.704-7.532 0-4.324 3.348-7.495 7.452-7.495 4.32 0 7.92 2.955 7.56 8.792h-11.736zm20.268 6.27c1.62 0 3.528-.684 4.644-2.27l.108 1.91h3.42V9.334h-3.528v8c-1.008-1.55-3.24-2.018-4.752-2.018-4.572 0-7.2 3.387-7.2 7.567s2.916 7.46 7.308 7.46v-.001zm-106.56-3.495c-2.052 0-3.744-1.766-3.744-4.288 0-2.487 1.692-4.324 3.744-4.324 2.052 0 3.708 1.873 3.708 4.324 0 2.486-1.692 4.288-3.708 4.288zm57.744.433c-2.412 0-4.032-2.199-4.032-4.433s1.512-4.612 4.032-4.612c2.556 0 4.032 2.414 4.032 4.612.036 2.234-1.62 4.433-4.032 4.433zm20.52-5.91c-.396-1.694-2.088-3.171-4.14-3.171-1.908 0-3.672 1.297-4.176 3.17h8.316v.001zm16.38 0c-.396-1.694-2.088-3.171-4.14-3.171-1.908 0-3.672 1.297-4.176 3.17h8.316v.001zm12.168-3.027c2.412 0 4.032 2.198 4.032 4.432 0 2.234-1.512 4.613-4.032 4.613-2.556 0-4.032-2.415-4.032-4.613 0-2.234 1.62-4.432 4.032-4.432z" fill="#B2B2B2"/></svg>
